X:1
T: Mrs. Kinloch's Favourite
C:Mr. Kinloch
R:Jig
Q:180
K:Bb
M:6/8
L:1/16
B2|d2c2B2 F2D2F2|G2E2G2 F2D2B,2|d2c2B2 F2D2F2|G4A2 B4B2|d2c2B2 F2D2F2|G2E2G2 F2D2B,2|d2c2B2 G2e2d2|c2B2A2 B4f2|
d4d2 c4c2|B2A2B2 A4A2|d4d2 c4c2|=e2e2e2 f4f2|d4d2 c4c2|B2A2B2 A4A2|d4d2 c2b2a2|g2f2=e2 f4e_e|
d4d2 c4c2|B2A2B2 A4A2|d4d2 c4c2|=e2e2e2 f4f2|g4g2 f4f2|e4e2 d4d2|d2c2B2 G2e2g2|f4A2 B4B2|
d2c2B2 F2D2F2|G2E2G2 F2D2B,2|d2c2B2 F2D2F2|G4A2 B4B2|d2c2B2 F2D2F2|G2E2G2 F2D2B,2|d2c2B2 G2e2d2|c2B2A2 B4||
